X:43
T:Bimid Ag Ol
R:jig
S:Willie Clancy
M:6/8
L:1/8
K:Gmaj
|:A|DGG A~B2|cBc d2A|DGG B2 d|cAG AGF|
DGG A~B2|cBc def|gbg afd|cAG G2:|
|:A|GBd ~g3|gfd ~f3|GBd ~g3|gfd cAF|
GBd ~g3|gag Jf2g|abg afd|cAG G2:|
